X: 25844
T: Master Seamus
R: reel
M: 4/4
K: Gmajor
Bc|:dB B2 DGBG|cE E2 EGcG|FD D2 FAd^c|ed^cd BGEG|
dB B2 DGBG|=cE E2 EGcG|FADF cAFA|G2 AF GABc:|
|:dggf gd (3Bcd|eccB ceag|fdd^c dfaf|agfe dcBc|
d2 (3Bcd gdBd|c3B cBAG|FADF AcAF|G2 AF GABc:|

